**kern	**kern	**dynam
*part1	*part1	*part1
*staff2	*staff1	*
*I"Piano	*	*
*clefF4	*clefG2	*
*k[f#c#g#d#]	*k[f#c#g#d#]	*
=1	=1	=1
*^	*^	*
4F#	4AA	4a]	4c#]	.
4BB	8.AL	4f#	8.c#L	.
.	16BJk	.	16d#Jk	.
*v	*v	*	*	*
=	=	=	=
4EE 4BB	12eL	12G#<	.
.	12c#	12ryy	<
.	12BJ	12ryy	.
4BB 4A	12d#L 12g#	4ryy	.
.	12f#	.	.
.	12g#J	.	.
=	=	=	=
4EE 4BB	12eL	12G#<	[
.	12c#	12ryy	>
.	12BJ	12ryy	.
4BB 4A	12d#L 12g#	4ryy	.
.	12f#	.	.
.	12g#J	.	.
=:|!	=:|!	=:|!	=:|!
4EE 4BB	12eL	12G#<	]
.	12c#	12ryy	<
.	12BJ	12ryy	.
4BB 4A	12d#L 12g#	4ryy	.
.	12f#	.	.
.	12g#J	.	.
=	=	=	=
4EE 4BB	12eL 12g#	12G#<	.
.	12c#	12ryy	.
.	12BJ	12ryy	[
4E	12g#L	4ryy	.
.	12f#	.	>
.	12eJ	.	.
*	*v	*v	*
=	=	=
4G#	12bL	.
.	12a	.
.	12g#J	.
4B	12eeL	.
.	12dd#	.
.	12cc#J	.
=	=	=
2e:> 2g#:>	2b: 2gg#:	]
==	==	==
*-	*-	*-
!!!system-decoration: {(s1,s2)}
!!!RDF**kern: > = above
!!!RDF**kern: < = below
